X: 24076
T: Long Drop, The
R: reel
M: 4/4
K: Gmajor
gedg edBA|GEED EDBD|!turn!G3 A !turn!B3 c|d2 ec dB .B2|
gedg edBA|GEED EDBD|!turn!G3 A BABc|dBAc BG .G2:|
gBBA BBg!turn!B-|$ B2 .gB .aBAB|c3 d edef|.g2 bg egde|
gBBA BBg!turn!B-|B2 .gB .aBAB|.c2 cd edef|gedc BG .G2|
gBBA BBg!turn!B-|B2 .gB .aBAB|c3 d edef|$ gabg egde|
gBBA B2 g!turn!B-|B2 .gB .aBAB|$ cBcd edef|gebg egde||

